img/filedialog/backwards.svg

<?xml version="1.0" encoding="UTF-8" standalone="no"?>
<svg
   width="512"
   height="512"
   viewBox="0 0 512 512"
   fill="none"
   version="1.1"
   id="svg4"
   sodipodi:docname="prev.svg"
   inkscape:version="1.2.1 (9c6d41e410, 2022-07-14)"
   xmlns:inkscape="http://www.inkscape.org/namespaces/inkscape"
   xmlns:sodipodi="http://sodipodi.sourceforge.net/DTD/sodipodi-0.dtd"
   xmlns="http://www.w3.org/2000/svg"
   xmlns:svg="http://www.w3.org/2000/svg">
  <defs
     id="defs8" />
  <sodipodi:namedview
     id="namedview6"
     pagecolor="#ffffff"
     bordercolor="#666666"
     borderopacity="1.0"
     inkscape:showpageshadow="2"
     inkscape:pageopacity="0.0"
     inkscape:pagecheckerboard="0"
     inkscape:deskcolor="#d1d1d1"
     showgrid="false"
     inkscape:zoom="1.1341146"
     inkscape:cx="89.056256"
     inkscape:cy="240.71641"
     inkscape:window-width="1920"
     inkscape:window-height="1051"
     inkscape:window-x="0"
     inkscape:window-y="0"
     inkscape:window-maximized="1"
     inkscape:current-layer="svg4" />
  <path
     d="m 160.29562,256.06779 -25.5728,-25.57282 -25.57282,25.57282 25.57282,25.5728 z M 351.71706,13.5 134.72282,230.49497 185.86844,281.64059 402.86341,64.646352 Z M 134.72282,281.64059 351.71706,498.6352 402.86341,447.48958 185.86844,230.49497 Z"
     fill="#ffffff"
     id="path2"
     style="stroke-width:36.1657" />
</svg>

<?xml version="1.0" encoding="UTF-8"?>
<svg width="512" height="512" fill="none" version="1.1" viewBox="0 0 512 512" xmlns="http://www.w3.org/2000/svg">
 <path d="m160.3 256.07-25.573-25.573-25.573 25.573 25.573 25.573zm191.42-242.57-216.99 216.99 51.146 51.146 216.99-216.99zm-216.99 268.14 216.99 216.99 51.146-51.146-216.99-216.99z" fill="#fff" stroke-width="36.166"/>
</svg>
